X: 80
P: Longways for as many as will
M: C|
L: 1/8
K: Bb
(BA) (Bc) d2 (cB) | (de) f2 f3 g | (fg) (fd) (ed) (cB) | (AB) (cd) c3 d |\
(ed) (cB) A3 A | (BA) (GF) =E3 C | (FA) (GB) (Ac) (dc) | (BA) (GF) F3 |]
c |\
(cA) (cA) F3 f | (fd) (fd) B3 d | (eG) (cA) ^F3 d | (cB) (AG) G3 D |\
(GA) (BG) e3 d | (dG) (cB) A3 F | (Bd) (ce) (df) (gf) | (ed) (cB) B3 |]

